SVG_Azure_All/Scaling Plan.svg

<?xml version="1.0" encoding="UTF-8" standalone="no"?>
<!-- Generated by Microsoft Visio, SVG Export Scaling Plan.svg Page-1 -->

<svg
   xmlns:dc="http://purl.org/dc/elements/1.1/"
   xmlns:cc="http://creativecommons.org/ns#"
   xmlns:rdf="http://www.w3.org/1999/02/22-rdf-syntax-ns#"
   xmlns:svg="http://www.w3.org/2000/svg"
   xmlns="http://www.w3.org/2000/svg"
   xmlns:sodipodi="http://sodipodi.sourceforge.net/DTD/sodipodi-0.dtd"
   xmlns:inkscape="http://www.inkscape.org/namespaces/inkscape"
   width="0.78741509in"
   height="0.7874071in"
   viewBox="0 0 56.693735 56.693545"
   xml:space="preserve"
   class="st4"
   version="1.1"
   id="svg35"
   sodipodi:docname="Scaling Plan.svg"
   style="font-size:12px;overflow:visible;color-interpolation-filters:sRGB;fill:none;fill-rule:evenodd;stroke-linecap:square;stroke-miterlimit:3"
   inkscape:version="0.92.5 (2060ec1f9f, 2020-04-08)"><metadata
   id="metadata39"><rdf:RDF><cc:Work
       rdf:about=""><dc:format>image/svg+xml</dc:format><dc:type
         rdf:resource="http://purl.org/dc/dcmitype/StillImage" /></cc:Work></rdf:RDF></metadata><sodipodi:namedview
   pagecolor="#ffffff"
   bordercolor="#666666"
   borderopacity="1"
   objecttolerance="10"
   gridtolerance="10"
   guidetolerance="10"
   inkscape:pageopacity="0"
   inkscape:pageshadow="2"
   inkscape:window-width="640"
   inkscape:window-height="480"
   id="namedview37"
   showgrid="false"
   inkscape:zoom="1.2002409"
   inkscape:cx="37.794909"
   inkscape:cy="37.79425"
   inkscape:window-x="0"
   inkscape:window-y="0"
   inkscape:window-maximized="0"
   inkscape:current-layer="svg35" />
	<style
   type="text/css"
   id="style2">
	<![CDATA[
		.st1 {fill:url(#grad0-6);stroke:none;stroke-linecap:butt;stroke-width:45.3887}
		.st2 {fill:#b3b3b3;stroke:none;stroke-linecap:butt;stroke-width:45.3887}
		.st3 {fill:#76bc2d;stroke:none;stroke-linecap:butt;stroke-width:45.3887}
		.st4 {fill:none;fill-rule:evenodd;font-size:12px;overflow:visible;stroke-linecap:square;stroke-miterlimit:3}
	]]>
	</style>

	<defs
   id="Patterns_And_Gradients">
		<linearGradient
   id="grad0-6"
   x1="8.0687202e-05"
   y1="113.30821"
   x2="34.363414"
   y2="113.30821"
   gradientTransform="scale(1.0013561,0.99864569)"
   gradientUnits="userSpaceOnUse">
			<stop
   offset="0"
   stop-color="#6bb9f2"
   stop-opacity="1"
   id="stop4" />
			<stop
   offset="1"
   stop-color="#1b93eb"
   stop-opacity="1"
   id="stop6" />
		</linearGradient>
	</defs>
	<g
   id="g33"
   transform="translate(-45.3892,-45.387759)">
		<title
   id="title10">Page-1</title>
		<g
   id="group1797-1"
   transform="translate(45.3887,-45.3887)">
			<title
   id="title12">Scaling Plan</title>
			<g
   id="group1798-2">
				<title
   id="title14">g12</title>
				<g
   id="shape1799-3"
   transform="translate(22.2841,-22.3783)">
					<title
   id="title16">path4</title>
					<path
   d="m 34.41,131.08 v -17.3 a 0.622343,0.620756 -180 0 0 -0.639394,-0.62501 L 16.44,113.16 a 0.622343,0.620756 -180 0 0 -0.43905,1.06294 L 20.78,118.99 21.1,119.3 a 0.630869,0.62926 0 0 1 0,0.88436 L 0.18,141.03 a 0.630869,0.62926 -180 0 0 0,0.88011 L 5.57,147.29 a 0.630869,0.62926 -180 0 0 0.886626,0 L 27.38,126.44 a 0.622343,0.620756 0 0 1 0.886626,0 l 0.313374,0.31 4.76,4.76 a 0.622343,0.620756 -180 0 0 1.06566,-0.43793 z"
   class="st1"
   id="path18"
   inkscape:connector-curvature="0"
   style="fill:url(#grad0-6);stroke:none;stroke-width:45.38869858;stroke-linecap:butt" />
				</g>
				<g
   id="shape1800-7"
   transform="translate(7.40418,-8.26541)">
					<title
   id="title21">path6</title>
					<path
   d="m 36.55,128.72 v 12.67 a 1.45782,1.4541 0 0 1 -1.46,1.45 H 6.12 A 1.45782,1.4541 0 0 1 4.66,141.39 V 114.1 a 1.45782,1.4541 0 0 1 1.46,-1.45 h 14.52 a 0.801374,0.79933 -180 0 0 0.801374,-0.79508 L 21.44,108.81 a 0.801374,0.79933 -180 0 0 -0.801374,-0.79933 L 1.45,108.01 A 1.46208,1.45835 -180 0 0 0,109.47 v 36.55 a 1.45356,1.44985 -180 0 0 1.45,1.45 h 38.29 a 1.44929,1.4456 -180 0 0 1.46,-1.45 v -17.3 a 0.797111,0.795078 -180 0 0 -0.805636,-0.79508 L 37.35,127.93 a 0.797111,0.795078 -180 0 0 -0.797111,0.79508 z"
   class="st2"
   id="path23"
   inkscape:connector-curvature="0"
   style="fill:#b3b3b3;stroke:none;stroke-width:45.38869858;stroke-linecap:butt" />
				</g>
				<g
   id="shape1801-9">
					<title
   id="title26">path8</title>
					<path
   d="m 55.8,143.82 h -3.67 v 3.65 h 3.67 z m -7.39,3.65 h -3.72 v -3.65 h 3.72 z m -7.46,0 h -3.72 v -3.65 h 3.72 z m -7.46,0 h -3.72 v -3.65 h 3.73 z m -7.46,0 h -3.72 v -3.65 h 3.72 z m -7.46,0 h -3.72 v -3.65 h 3.73 z m -7.46,0 H 7.39 v -3.65 h 3.73 z M 3.66,143.82 H 0 v 3.65 h 3.66 z m 0,-3.72 H 0 v -3.72 h 3.66 z m 0,-7.44 H 0 v -3.72 h 3.66 z m 0,-7.44 H 0 v -3.71 h 3.66 z m 0,-7.44 H 0 v -3.72 h 3.66 z m 0,-7.44 H 0 v -3.71 h 3.66 z m 0,-7.44 H 0 v -3.71 h 3.66 z m 0,-11.08 H 0 v 3.65 h 3.66 z m 22.37,3.65 h -3.72 v -3.65 h 3.72 z m -7.46,0 h -3.72 v -3.65 h 3.73 z m -7.46,0 H 7.39 v -3.65 h 3.73 z m 44.68,44.63 h -3.65 v -3.72 h 3.66 z m 0,-7.44 h -3.65 v -3.72 h 3.66 z m 0,-7.44 h -3.65 v -3.71 h 3.66 z"
   class="st3"
   id="path28"
   inkscape:connector-curvature="0"
   style="fill:#76bc2d;stroke:none;stroke-width:45.38869858;stroke-linecap:butt" />
				</g>
			</g>
		</g>
	</g>
</svg>

<?xml version="1.0" encoding="UTF-8" standalone="no"?>
<!DOCTYPE svg PUBLIC "-//W3C//DTD SVG 1.1//EN" "http://www.w3.org/Graphics/SVG/1.1/DTD/svg11.dtd">
<!-- Generated by Microsoft Visio, SVG Export Scaling Plan.svg Page-1 -->
<svg xmlns="http://www.w3.org/2000/svg" xmlns:xlink="http://www.w3.org/1999/xlink" xmlns:ev="http://www.w3.org/2001/xml-events"
		width="2.0482in" height="2.0482in" viewBox="0 0 147.47 147.471" xml:space="preserve" color-interpolation-filters="sRGB"
		class="st4">
	<style type="text/css">
	<![CDATA[
		.st1 {fill:url(#grad0-6);stroke:none;stroke-linecap:butt;stroke-width:45.3887}
		.st2 {fill:#b3b3b3;stroke:none;stroke-linecap:butt;stroke-width:45.3887}
		.st3 {fill:#76bc2d;stroke:none;stroke-linecap:butt;stroke-width:45.3887}
		.st4 {fill:none;fill-rule:evenodd;font-size:12px;overflow:visible;stroke-linecap:square;stroke-miterlimit:3}
	]]>
	</style>

	<defs id="Patterns_And_Gradients">
		<linearGradient id="grad0-6" x1="0" y1="0" x2="1" y2="0" gradientTransform="rotate(69.781055268161 0.5 0.5)">
			<stop offset="0" stop-color="#6bb9f2" stop-opacity="1"/>
			<stop offset="1" stop-color="#1b93eb" stop-opacity="1"/>
		</linearGradient>
	</defs>
	<g>
		<title>Page-1</title>
		<g id="group1782-1" transform="translate(45.3887,-45.3887)">
			<title>Scaling Plan</title>
			<g id="group1783-2">
				<title>g12</title>
				<g id="shape1784-3" transform="translate(22.2841,-22.3783)">
					<title>path4</title>
					<path d="M34.41 131.08 L34.41 113.78 a0.622343 0.620756 -180 0 0 -0.639394 -0.625008 L16.44 113.16 a0.622343
								 0.620756 -180 0 0 -0.43905 1.06294 L20.78 118.99 L21.1 119.3 a0.630869 0.62926 0 0 1 -5.32907E-14
								 0.884365 L0.18 141.03 a0.630869 0.62926 -180 0 0 -6.16174E-15 0.880113 L5.57 147.29 a0.630869 0.62926
								 -180 0 0 0.886626 0 L27.38 126.44 a0.622343 0.620756 0 0 1 0.886626 -8.52651E-14 L28.58 126.75 L33.34
								 131.51 a0.622343 0.620756 -180 0 0 1.06566 -0.437931 L34.41 131.08 Z" class="st1"/>
				</g>
				<g id="shape1785-7" transform="translate(7.40418,-8.26541)">
					<title>path6</title>
					<path d="M36.55 128.72 L36.55 141.39 A1.45782 1.4541 0 0 1 35.09 142.84 L6.12 142.84 A1.45782 1.4541 0 0 1 4.66
								 141.39 L4.66 114.1 A1.45782 1.4541 0 0 1 6.12 112.65 L20.64 112.65 a0.801374 0.79933 -180 0 0 0.801374
								 -0.795078 L21.44 108.81 a0.801374 0.79933 -180 0 0 -0.801374 -0.79933 L1.45 108.01 A1.46208 1.45835
								 -180 0 0 -0 109.47 L0 146.02 A1.45356 1.44985 -180 0 0 1.45 147.47 L39.74 147.47 A1.44929 1.4456
								 -180 0 0 41.2 146.02 L41.2 128.72 a0.797111 0.795078 -180 0 0 -0.805636 -0.795078 L37.35 127.93
								 a0.797111 0.795078 -180 0 0 -0.797111 0.795078 Z" class="st2"/>
				</g>
				<g id="shape1786-9">
					<title>path8</title>
					<path d="M55.8 143.82 L52.13 143.82 L52.13 147.47 L55.8 147.47 L55.8 143.82 ZM48.41 147.47 L44.69 147.47 L44.69
								 143.82 L48.41 143.82 L48.41 147.47 ZM40.95 147.47 L37.23 147.47 L37.23 143.82 L40.95 143.82 L40.95
								 147.47 ZM33.49 147.47 L29.77 147.47 L29.77 143.82 L33.5 143.82 L33.49 147.47 ZM26.03 147.47 L22.31
								 147.47 L22.31 143.82 L26.03 143.82 L26.03 147.47 ZM18.57 147.47 L14.85 147.47 L14.85 143.82 L18.58
								 143.82 L18.57 147.47 ZM11.11 147.47 L7.39 147.47 L7.39 143.82 L11.12 143.82 L11.11 147.47 ZM3.66
								 143.82 L0 143.82 L0 147.47 L3.66 147.47 L3.66 143.82 ZM3.66 140.1 L0 140.1 L0 136.38 L3.66 136.38
								 L3.66 140.1 ZM3.66 132.66 L0 132.66 L0 128.94 L3.66 128.94 L3.66 132.66 ZM3.66 125.22 L0 125.22
								 L0 121.51 L3.66 121.51 L3.66 125.22 ZM3.66 117.78 L0 117.78 L0 114.06 L3.66 114.06 L3.66 117.78
								 ZM3.66 110.34 L0 110.34 L0 106.63 L3.66 106.63 L3.66 110.34 ZM3.66 102.9 L0 102.9 L0 99.19 L3.66
								 99.19 L3.66 102.9 ZM3.66 91.82 L0 91.82 L0 95.47 L3.66 95.47 L3.66 91.82 ZM26.03 95.47 L22.31 95.47
								 L22.31 91.82 L26.03 91.82 L26.03 95.47 ZM18.57 95.47 L14.85 95.47 L14.85 91.82 L18.58 91.82 L18.57
								 95.47 ZM11.11 95.47 L7.39 95.47 L7.39 91.82 L11.12 91.82 L11.11 95.47 ZM55.79 140.1 L52.14 140.1
								 L52.14 136.38 L55.8 136.38 L55.79 140.1 ZM55.79 132.66 L52.14 132.66 L52.14 128.94 L55.8 128.94
								 L55.79 132.66 ZM55.79 125.22 L52.14 125.22 L52.14 121.51 L55.8 121.51 L55.79 125.22 Z" class="st3"/>
				</g>
			</g>
		</g>
	</g>
</svg>
